!!!OTL: Es droehnet der Marsch der Kolonne, der Tambour schlaegt das Fell
!!!ARE: Europa, Mitteleuropa, Deutschland, Brandenburg, Berlin
!!!SCT: D0195
!!!YEM: Copyright 1995, estate of Helmut Schaffrath.
**kern
*ICvox
*Ivox
*M4/4
*k[f#]
*e:
{4B
=1
4e
8.e
16f#
4gn
8.f#
16e
=2
4f#
2f#}
{4b
=3
4b
4e
4.a
8gn
=4
2f#
4r}
{4B
=5
4e
8.e
16f#
4gn
8.f#
16e
=6
4f#
2f#}
{4b
=7
4b
8a
8gn
4a
8gn
8f#
=8
2gn
4r}
{4b
=9
4b
8.gn
16gn
4gn
8a
8b
=10
4a
8.dn
16dn
4dn}
{8e
8f#
=11
4gn
4e
4e
8f#
8gn
=12
4f#
4B
4B}
{8.e
16f#
=13
4gn
4e
4f#
4dd#
=14
2e
4r}
{4b
=15
4b
8.gn
16gn
4gn
8a
8b
=16
4a
8.dn
16dn
4dn}
{8e
8f#
=17
4gn
4e
4e
8f#
8gn
=18
4f#
4B
4B}
{8.e
16f#
=19
4gn
4e
4f#
4dd#
=20
2e
4r}
==
!!!AGN: Soldaten - Lied
!! Inzipit = Transposition zum Lied
!!!ONB: ESAC (Essen Associative Code) Database: DVA
!!!AMT: simple quadruple
!!!AIN: vox
!!!EED: Helmut Schaffrath
!!!EEV: 1.0
*-
